X:43
T: Ritter und Magd
N: Q2055p
O: Suedosteuropa, Jugoslawien, Kroatien
N: Kroatische Fassung der Ballade.
N: Dritte und vierte Zeile = Refrain, dritte Zeile auf sinnfreie Silben.
R: Ballade, Betrug, Schwangerschaft, Tod, Selbstmord, Herr und Magd
M: 2/4
L: 1/16
K: G
 | G3DD2D2 | G2G2G2
B2 | A3GF2E2 | E4D4 |
D3ED2C2 | B,2B2B4 |
c2F2E2F2 | G4G2z2

